X: 1118
T: the Swaggering Jig   #2
R: slip jig
%S: s:2 b:10(5+5)
B: O'Neill's 1850 #1118
O: Early
Z: Michael D. Long, 12/09/98
Z: Michael Hogan
M: 9/8
L: 1/8
K: G
"^A"|: d | BGG AGE DGG | BAG GFG Azd | BGG AGE DGG | cBA BGE D2 "^B":: c | .B(~dc) dgf dBG |
| Bdd dBG Az [1 c | Bdd dge dBG | cBA BGE Dz :|[2 f | {a}gfe dBd cBA | cBA BGE D2 |]
